X:19
M:6/8
L:1/8
K:G
|:d|g>ab g2d|ef/g/e d2B|cde gdc|"tr"B3 A2D|G2B d2B|e/f/ge d2G|E2c BcA|BG2 G2:|

